X: 24962
T: Maid Of Ballingarry, The
R: waltz
M: 3/4
K: Gmajor
({f}g-)|g{fg}f/ {g}e2AB/d/-|d2AB/c/ {A}B3/2{AB}A/|
{F}G{B}G/F/ E3F|G3/2{A}G/ {F}G2A B/4c/4d/-|
d3{Bd}c (A2|B4-)B({f}g-)|g{fg}f/ {g}e2AB/d/-|
d2AB/c/ {A}B3/2{AB}A/|{F}G{B}G/F/ E3F|
G3/2A/ B/d3/2- d3/2e/|.c/A3/2 .B/G3/2 A2-|
A3/2{B}A/ G {A}G3-|G4{A}G3/2A/|
B3/2.B/ g2({af}e)f/4g3/4|a3{fg}f/g/ f/e/d-|
d4({A}B3/2).d/|{d}e3/2f/4 g3/4 ({fg}f3/2) {g}f/e/ d|
{d}e3f g2-|g4z({f}g-)|g{fg}f/ {g}e2AB/d/-|
d2AB/c/ {A}B3/2{AB}A/|{F}G{B}G/F/ E3F|
G3/2A/ B/d3/2- d3/2.e/|.c/A3/2 .B/G3/2 A2-|
A3/2{B}A/ G {A}G3-|G4-G||

